X: 85
T:Nail That Catfish to the Tree
M:2/4
L:1/16
C:Steve Rosen
O:American
A:Chicago
N:Merriweather: Peter Martin - hammered dulcimer, flute, whistle; Bill
N:Paine - mandolin, bouzouki, guitar
D:Merriweather - "The Wren's Dilemma"
Z:Transcribed from sound by Jonathan Whitall
K:G
|"G"G2B2 "D7"A2B2|cBAG "G"B2G2|"D7"ABAG F2AB|AGF2 E2D2|!
"G"G2B2 "D7"A2B2|cBAG "G"B2G2|"D7"ABAG FEF2|"G"G4 G2D2:|!
"C"E4 G4|c6 G2|"D7"ABAG F2AB|AGF2 E2D2|!
"C"E4 G4|1c6 G2|"D7"ABAG FEF2|"G"G4 G2D2:|2"C"c6 Bc|"D7"d2 c2 B2 A2|"G"G4 G4:|!
